icon-themes/breeze_svg/sw/res/sidebar/pageproppanel/formatwide_24x24.svg

<svg viewBox="0 0 24 24" xmlns="http://www.w3.org/2000/svg"><path d="m3 6v1 13h1 18v-13-1h-1-17zm1 1h17v12h-16-1z" fill="#4d4d4d"/><path d="m7 7v3h-3v1h3v4h-3v1h3v3h1v-3h9v3h1v-3h3v-1h-3v-4h3v-1h-3v-3h-1v3h-9v-3zm1 4h9v4h-9z" fill="#1d99f3"/></svg>

<svg xmlns="http://www.w3.org/2000/svg" viewBox="0 0 24 24">
 <path 
     style="fill:#4d4d4d" 
     d="M 3 6 L 3 7 L 3 20 L 4 20 L 22 20 L 22 7 L 22 6 L 21 6 L 4 6 L 3 6 z M 4 7 L 21 7 L 21 19 L 5 19 L 4 19 L 4 7 z "
     />
 <path 
     style="fill:#1d99f3" 
     d="M 7 7 L 7 10 L 4 10 L 4 11 L 7 11 L 7 15 L 4 15 L 4 16 L 7 16 L 7 19 L 8 19 L 8 16 L 17 16 L 17 19 L 18 19 L 18 16 L 21 16 L 21 15 L 18 15 L 18 11 L 21 11 L 21 10 L 18 10 L 18 7 L 17 7 L 17 10 L 8 10 L 8 7 L 7 7 z M 8 11 L 17 11 L 17 15 L 8 15 L 8 11 z "
     />
</svg>
